X:1
T:Green Pastures
T:Alonzo Judson Abbey
T:Green Pastures
T:Public Domain
T:Public Domain
T:Public Domain
C:Alonzo Judson Abbey
Z:Public Domain
%%score ( 1 2 ) ( 3 4 )
L:1/8
M:2/4
K:C
V:1 treble 
V:2 treble 
V:3 bass 
V:4 bass 
V:1
 [EG] | [FA][EG] [^D^F][EG] | [Ec]3 [DB] | [Cd][Cc] [CB][Cc] | [FA]3 [FA] | [FA][EG] [^D^F][EG] | %6
w: 1.~Green|past- ures for the|lambs, The|ten- der of the|flock: No|pois- onous plant is|
w: 2.~Green|pas- tures for the|lambs, So|in- no- cent and|sweet, No|foes to do them|
w: 3.~Green|past- ures for the|lambs, The|lit- tle child- ren|all; For|whom the Sav- ior|
 [CE][EG] [DG][EA] | [DB]2 [^FA]2 | G3 [EG] | [FA][EG] [^D^F][EG] | [Ec]3 [DB] | %11
w: there, And there no|bar- ren|rock. There,|dis- cord- ant notes|Can fall|
w: harm, No pit- falls|for their|feet, Be-|the wa- ters still,|Con- tent-|
w: died, To save them|from the|fall; There|sons, good and wise,|On ev-|
 [Cd][Cc] [CB][Cc] | [FA]3 [GB] | [Ac][^GB] [Ac][FA] | [EG][FG] G[Ec] | (ED) (DF) | [Ec]3 || %17
w: up- on the ear;|And words|of peace and love|The tim- id heart|cheer. * * *||
w: ed they may stray;|No chill-|ing frost by night,|No burn- ing heat|day. * Green *|green|
w: ery page are found,|To fit|the youth- ful soul,|To dwell on heav’n-|ground. * * *||
"^Refrain" [EG] | [FA] [EG]2 [EG] | [FA] [EG]2 [Ec] | ([Ec][DB]) [DB][^C^A] | [DB]3 [B,D] | %22
w: |||||
w: past-|ures, Dear child-|ren for you,|The * world is|a de-|
w: |||||
 ([B,D][CE]) [DF][EG] | [GB] [FA]2 [EG] | ([DF][CE]) [CE][CE] | [CE]3 [EG] | [FA] [EG]2 [EG] | %27
w: |||||
w: sert, * Its plea-|sures un- true;|Green * past- ures,|green past-|ures, Oh, do|
w: |||||
 [FA] [EG]2 [Ec] | ([Ec][DB]) [DB][^C^A] | [DB]3 [FB] | [Ec] [EG]2 [Gc] | [FB] [FA]2 [FA] | %32
w: |||||
w: not de- lay.|Come, * child- ren,|dear child-|ren, And en-|ter to- day.|
w: |||||
 (Gc) [Dc][FB] | [Ec]3 |] %34
w: ||
w: ||
w: ||
V:2
 x | x4 | x4 | x4 | x4 | x4 | x4 | x4 | G3 x | x4 | x4 | x4 | x4 | x4 | x2 G x | c2 B2 | x3 || x | %18
w: ||||||||no||||||will||||
w: ||||||||side||||||by|past- ures,|||
w: ||||||||les-||||||ly||||
 x4 | x4 | x4 | x4 | x4 | x4 | x4 | x4 | x4 | x4 | x4 | x4 | x4 | x4 | E2 x2 | x3 |] %34
w: ||||||||||||||||
w: ||||||||||||||||
w: ||||||||||||||||
V:3
 [C,C] | [C,C][C,C] [C,C][C,C] | [C,G,]3 [E,G,] | [F,A,][F,A,] [F,^G,][F,A,] | [F,C]3 [F,C] | %5
 [C,C][C,C] [C,C][C,C] | [C,G,][C,G,] [C,G,][C,G,] | [D,G,]2 [D,C]2 | [G,,G,B,]3 [C,C] | %9
 [C,C][C,C] [C,C][C,C] | [C,G,]3 [E,G,] | [F,A,][F,A,] [F,^G,][F,A,] | [F,C]3 [F,C] | %13
 [F,C][F,D] [F,C][F,C] | [C,C][D,B,] [E,C][C,G,] | G,2 [G,,G,]2 | [C,G,]3 || z | %18
 z ([C,C] [C,C]) z | z ([C,C] [C,C]) z | G,, z G, z | G,,3 z | z [C,C] [C,C] z | z [C,C] [C,C] z | %24
 G,, z G, z | G,,3 z | G,,G, G,G, | G,,G, G,G, | C,G, E,G, | [C,G,]3 [G,,G,] | %30
 [C,G,] [C,C]2 [E,C] | [F,C] [F,C]2 [F,C] | (CG,) [G,,G,][G,,G,] | [C,G,]3 |] %34
V:4
 x | x4 | x4 | x4 | x4 | x4 | x4 | x4 | x4 | x4 | x4 | x4 | x4 | x4 | x4 | G,2 x2 | x3 || x | x4 | %19
 x4 | x4 | x4 | x4 | x4 | x4 | x4 | x4 | x4 | x4 | x4 | x4 | x4 | G,2 x2 | x3 |] %34

